static/images/past-sponsors/astral.svg

<svg fill="none" height="61" viewBox="0 0 302 61" width="302" xmlns="http://www.w3.org/2000/svg"><g fill="#000"><path clip-rule="evenodd" d="m195.267 15.0442c0-2.1984 1.782-3.9806 3.98-3.9806h31.91c2.199 0 3.981 1.7819 3.982 3.9806v35.8921h-18.341v-11.9618h-3.19v11.9618h-18.341zm24.721 14.3609v-3.1899h-9.57v3.1899zm-196.9716-14.3609c0-2.1984 1.7821-3.9806 3.9806-3.9806h31.9098c1.056-.0004 2.0689.4188 2.8158 1.1653.7469.7466 1.1665 1.7593 1.1665 2.8153v35.8921h-18.3415v-11.9618h-3.1898v11.9618h-18.3414zm24.721 14.3609v-3.1899h-9.5694v3.1899z" fill-rule="evenodd"/><path d="m66.0788 15.0442c.0009-2.1974 1.7816-3.9788 3.979-3.9806h31.9102c2.198 0 3.98 1.7822 3.98 3.9806v7.9812h-18.3379v-3.1898h-3.1898v6.3796h17.5507c1.056 0 2.069.4197 2.815 1.1665.747.7469 1.166 1.7598 1.166 2.8158v16.7582c0 1.056-.42 2.0688-1.167 2.8153-.747.7466-1.76 1.1658-2.816 1.1653h-31.9096c-2.1987 0-3.9813-1.7819-3.9823-3.9806v-7.9812h18.3415v3.1898h3.1898v-6.3796h-17.549c-2.1993 0-3.9823-1.7829-3.9823-3.9823zm82.9352 2.399h-18.341v-6.3796h-18.342v6.3796h-3.19v15.1517h3.19v14.3591c0 1.0558.419 2.0684 1.165 2.8153.746.7468 1.758 1.1666 2.814 1.167h32.701v-15.1516h-18.338v-3.1898h14.36c2.199-.0009 3.981-1.7836 3.981-3.9823z"/><path clip-rule="evenodd" d="m192.077 15.0442c-.001-2.1987-1.784-3.9806-3.983-3.9806h-35.89v39.8727h18.341v-11.9618h3.19v11.9618h18.342v-15.1516h-7.975v-3.1898h3.992c2.2 0 3.983-1.783 3.983-3.9823zm-15.152 11.171v3.1899h-9.569v-3.1899z" fill-rule="evenodd"/><path d="m256.671 35.7847h21.531v15.1516h-39.873v-39.8727h18.342z"/></g></svg>

<svg width="302" height="61" viewBox="0 0 302 61" fill="none" xmlns="http://www.w3.org/2000/svg">
<path fill-rule="evenodd" clip-rule="evenodd" d="M195.267 15.0442C195.267 12.8458 197.049 11.0636 199.247 11.0636H231.157C233.356 11.0636 235.138 12.8455 235.139 15.0442V50.9363H216.798V38.9745H213.608V50.9363H195.267V15.0442ZM219.988 29.4051V26.2152H210.418V29.4051H219.988ZM23.0164 15.0442C23.0164 12.8458 24.7985 11.0636 26.997 11.0636H58.9068C59.9628 11.0632 60.9757 11.4824 61.7226 12.2289C62.4695 12.9755 62.8891 13.9882 62.8891 15.0442V50.9363H44.5476V38.9745H41.3578V50.9363H23.0164V15.0442ZM47.7374 29.4051V26.2152H38.168V29.4051H47.7374Z" fill="black"/>
<path d="M66.0788 15.0442C66.0797 12.8468 67.8604 11.0654 70.0578 11.0636H101.968C104.166 11.0636 105.948 12.8458 105.948 15.0442V23.0254H87.6101V19.8356H84.4203V26.2152H101.971C103.027 26.2152 104.04 26.6349 104.786 27.3817C105.533 28.1286 105.952 29.1415 105.952 30.1975V46.9557C105.952 48.0117 105.532 49.0245 104.785 49.771C104.038 50.5176 103.025 50.9368 101.969 50.9363H70.0594C67.8607 50.9363 66.0781 49.1544 66.0771 46.9557V38.9745H84.4186V42.1643H87.6084V35.7847H70.0594C67.8601 35.7847 66.0771 34.0018 66.0771 31.8024L66.0788 15.0442ZM149.014 17.4432H130.673V11.0636H112.331V17.4432H109.141V32.5949H112.331V46.954C112.331 48.0098 112.75 49.0224 113.496 49.7693C114.242 50.5161 115.254 50.9359 116.31 50.9363H149.011V35.7847H130.673V32.5949H145.033C147.232 32.594 149.014 30.8113 149.014 28.6126V17.4432Z" fill="black"/>
<path fill-rule="evenodd" clip-rule="evenodd" d="M192.077 15.0442C192.076 12.8455 190.293 11.0636 188.094 11.0636H152.204V50.9363H170.545V38.9745H173.735V50.9363H192.077V35.7847H184.102V32.5949H188.094C190.294 32.5949 192.077 30.8119 192.077 28.6126V15.0442ZM176.925 26.2152V29.4051H167.356V26.2152H176.925Z" fill="black"/>
<path d="M256.671 35.7847H278.202V50.9363H238.329V11.0636H256.671V35.7847Z" fill="black"/>
</svg>
